X:437
%%etbk:tnset id:132,pos:1,rep:3x,ant:
%%etbk:wsite http://www.thesession.org/tunes/display/2823
%%etbk:pldat 2015-03-06T17:41,2015-01-24T13:38,2015-01-20T17:36,2014-12-10T16:42,2014-09-10T16:49,2014-08-31T14:39,2014-08-26T17:29,2014-06-22T16:50,2014-06-09T16:06,2014-05-28T17:10,2014-05-20T17:27,2014-04-27T15:14,2014-04-12T13:19,2014-04-06T16:16,2014-03-22T16:48,2014-03-21T16:50,2014-03-19T19:14,2014-03-01T18:04,2014-02-26T19:02,2014-02-15T16:45,2014-02-14T16:32,2014-02-11T17:43,2013-11-25T20:00,2013-11-21T18:14,2013-11-16T16:09,2013-10-08T17:06,2013-10-03T19:21,2013-09-16T15:23,2013-09-04T17:59,2013-05-22T16:41
T: Brown-Sailed Boat, The
Z: Piano Box Version by Martin Fleischmann
H: Created 2013-02-19 /  Last Modified 2013-02-19
M: 4/4
L: 1/8
R: strathspey
K: Edor
!3!B<!1!E !3!B>!2!A B<E !3!B>c | !5!d>!3!B !2!A>!1!G !2!F>!1!D !2!(3F!3!G!4!A | !5!B<!1!E !3!B>A B<E B>A |!3!(3Bcd !2!FA !3!G<!1!E E2:|
!3!g>f e>f g<e !5!b>g | !2!f>!1!e !2!d>!2!e !2!f<d !4!a>f | !3!g>f e>f g<e b>g | !2!f>!1!e !2!^d>!5!b !3!g<!1!e e2|
!3!g>f e>f !3!(3gab !1!e>!3!g | !2!f>!1!e !2!d>!1!e !2!f>!4!a !1!d>!2!f | !3!g>b !2!f>a !1!(3e!2!f!1!e !2!d>e | !1!B>!5!d !2!F>A !3!G<!1!E E2|


